X: 17
T:Fermoy Lasses, The
M:C|
L:1/8
S:THSP
R:reel
Z:
K:G
"Em"GE~E2 BE~E2|GFGA B2BA|GE~E2 BE~E2|"D"AFDF AcBA|
"Em"GE~E2 BE~E2|GFGA B2BA|"G"~G3F GBdB|"D"AFDF AcBA:||:
"G"G2BG dGBG|~G2 (3Bcd "C"efg2|"G"G2BG dGBG|"D"AFDF AcBA|
"G"G2BG dGBG|~G2 (3Bcd "C"efg2|"G"afge dedB|"D"AFDF AcBA:||
